X: 6
T: Fanny Power
R: jig
M: 6/8
L: 1/8
K: Gmaj
|: G |G2 D GAB | c2 B A2 G | F2 E DFD | F2 G A2 c |
BAG Bcd | e2 A A2 G | F2 E DGF | G3 G2 :|
|: B |dB/c/d dB/c/d | GBG GBG | ec/d/e ec/d/e | AcA AcA |
Bcd efg | fga ded | B2 G ABA | G3 G2 :|


Tune 957	Setting 14156

